X: 15641
T: Goin' Back To Old St. John's
R: reel
M: 4/4
K: Cmajor
|:CcBc AcGE|Ddde fdec|CcBc AcGE|1 DdcB c2c2:|2 DdcB c2cB||
d2dc ecec|fdec dBG2|dBdc ecec|edcB c2cB|
d2dc ecec|fdec dBGE|CcBc AcGE|DdcB c2c2||

